!!!COM:	Agricola, Alexander
!!!CDT:	~1446-1506/08/15
!!!OPR:	Missa Malheur me bat
!!!ONM:	1
!!!OTL:	Kyrie
!!!AGN:	Mass; Kyrie
!!!SCT:	Agr1004a
!!!SCA:	Agr1004a
!!!voices:	4
!!!voices-OPR:	4
**kern	**kern	**kern	**kern
*staff4	*staff3	*staff2	*staff1
*Ivox	*Ivox	*Ivox	*Ivox
*I"Bassus	*I"Tenor	*I"Altus	*I"Superius
*I'B	*I'T	*I'A	*I'S
*>[A,B,C]	*>[A,B,C]	*>[A,B,C]	*>[A,B,C]
*>A	*>A	*>A	*>A
*clefF4	*clefGv2	*clefGv2	*clefG2
*k[]	*k[]	*k[]	*k[]
*M3/1	*M3/1	*M3/1	*M3/1
*met(O)	*met(O)	*met(O)	*met(O)
!!section: Kyrie I
!!!OMD: Kyrie I
=1-	=1-	=1-	=1-
0E	[0.E	1E	0.e
.	.	2E	.
.	.	1B	.
1E	.	.	.
.	.	2B	.
=2	=2	=2	=2
1.C	0.E]	4.c	1g
.	.	8B	.
.	.	1e	.
.	.	.	2a
2BB	.	2.d	2b
1AA	.	.	1cc
.	.	8cL	.
.	.	8BJ	.
.	.	2c	.
=3	=3	=3	=3
0GG	0.B	0d	2b
.	.	.	1g
.	.	.	4f
.	.	.	4e
1GG	.	1d	2d
.	.	.	[2g
=4	=4	=4	=4
2.C	0.c	1e	2g]
.	.	.	2.g
4D	.	.	.
2E	.	1r	.
.	.	.	4e
2.F	.	.	2.a
.	.	1r	.
8EL	.	.	4g
8DJ	.	.	.
4E	.	.	[2g
4C	.	.	.
=5	=5	=5	=5
1G	0B	2.E	4g]
.	.	.	4f
.	.	.	2e
.	.	4F	.
1GG	.	2.G	2d
.	.	.	2.g
.	.	8FL	.
.	.	8EJ	.
1GG	1G	2.D	.
.	.	.	8fL
.	.	.	8eJ
.	.	.	4d
.	.	4E	4g
=6	=6	=6	=6
0FF	0A	2.F	2c
.	.	.	4r
.	.	8EL	4.cc
.	.	8DJ	.
.	.	2C	.
.	.	.	8b
.	.	.	2a
.	.	2F	.
.	.	.	8gL
.	.	.	8fJ
2C	1G	4r	2e
.	.	4C	.
4BB	.	4D	2r
[4C	.	[4E	.
=7	=7	=7	=7
4C]	0E	8EL]	1r
.	.	8FJ	.
4AA	.	4.G	.
4GG	.	.	.
.	.	8FL	.
2C	.	8E	.
.	.	8DJ	.
.	.	2.C	1c
2G	.	.	.
8FL	.	4G	.
8EJ	.	.	.
4.D	1F	4A	1d
.	.	2c	.
8C	.	.	.
2D	.	.	.
.	.	4B	.
=8	=8	=8	=8
1C	2.E	2c	4.e
.	.	.	8f
.	.	2e	4g
.	4F	.	4a
1r	2G	2d	2b
.	2.A	4c	2.cc
.	.	2e	.
1r	.	.	.
.	8GL	4f	8bL
.	8FJ	.	8aJ
.	2G	2d	2b
=9	=9	=9	=9
2r	2C	1c	1cc
2C	4r	.	.
.	4c	.	.
2D	4B	4r	1r
.	2A	4.F	.
2D	.	.	.
.	.	8GL	.
.	8GL	8A	.
.	8FJ	8BJ	.
1C	2.E	4c	2.g
.	.	2G	.
.	4F	[4c	4f
=10	=10	=10	=10
2r	2G	4c]	2d
.	.	4B	.
1FF	2.A	1c	4r
.	.	.	2c
.	4G	.	8BL
.	.	.	8AJ
4.C	2E	2.c	2G
8BB	.	.	.
2AA	2F	.	2A
.	.	8BL	.
.	.	8AJ	.
2GG	2G	2d	2B
=11	=11	=11	=11
4r	1C	2e	2c
2G	.	.	.
.	.	4c	2e
8FL	.	2c	.
8EJ	.	.	.
2D	2D	.	2f
.	.	4B	.
1C	2E	2.c	4r
.	.	.	4g
.	2AA	.	4a
.	.	4d	4.cc
4r	4.AA	[2e	.
.	.	.	8b
[4c	.	.	[4a
.	8BB	.	.
=12	=12	=12	=12
4c]	2C	2e]	4a]
4B	.	.	2g
2A	2D	2d	.
.	.	.	4f
4.G	2E	4B	2.g
.	.	4.e	.
8F	.	.	.
4E	2G	.	.
.	.	8d	.
8DL	.	2c	8fL
8CJ	.	.	8eJ
2D	1F	.	8fL
.	.	.	8e
.	.	8BL	8d
.	.	8AJ	8cJ
2D	.	2B	2d
=13	=13	=13	=13
0.Cl	0.El	0.cl	0.el
!!LO:LB:i:g=z
=14||	=14||	=14||	=14||
*>B	*>B	*>B	*>B
*clefF4	*clefGv2	*clefGv2	*clefG2
*k[]	*k[]	*k[]	*k[]
*M2/1	*M2/1	*M2/1	*M2/1
*met(C|)	*met(C|)	*met(C|)	*met(C|)
!!section: Christe
!!!OMD: Christe
0r	0r	1.E	0r
.	.	4D	.
.	.	4C	.
=15	=15	=15	=15
0r	0r	1D	0r
.	.	1C	.
=16	=16	=16	=16
0r	0r	2G	1.e
.	.	2A	.
.	.	2G	.
.	.	[2c	4d
.	.	.	4c
=17	=17	=17	=17
0r	0r	2c]	1d
.	.	2B	.
.	.	[1c	1c
=18	=18	=18	=18
0r	0r	2c]	2g
.	.	4B	2a
.	.	4A	.
.	.	4B	2g
.	.	4c	.
.	.	2A	[2cc
=19	=19	=19	=19
0r	0r	1G	2cc]
.	.	.	2b
.	.	2r	[1cc
.	.	[2A	.
=20	=20	=20	=20
0r	0r	2A]	2cc]
.	.	4G	4b
.	.	4F	4a
.	.	4E	2g
.	.	4F	.
.	.	2D	[2a
=21	=21	=21	=21
0r	0r	2C	4a]
.	.	.	4g
.	.	1D	4f
.	.	.	4e
.	.	.	2d
.	.	2E	[2g
=22	=22	=22	=22
0r	0r	2C	4g]
.	.	.	4f
.	.	1c	4e
.	.	.	4d
.	.	.	2e
.	.	4B	[2d
.	.	4A	.
=23	=23	=23	=23
0r	0r	2B	4d]
.	.	.	4c
.	.	1G	4B
.	.	.	4A
.	.	.	2B
.	.	[2c	2A
=24	=24	=24	=24
0r	0r	4c]	1.a
.	.	4B	.
.	.	4A	.
.	.	4G	.
.	.	2c	.
.	.	2d	4g
.	.	.	4f
=25	=25	=25	=25
0r	0r	2B	2g
.	.	2A	1a
.	.	1B	.
.	.	.	2g#i
=26	=26	=26	=26
2r	1e	0A	0a
1A	.	.	.
.	1c	.	.
[2F	.	.	.
=27	=27	=27	=27
2F]	2d	0r	0r
2G	1e	.	.
1A	.	.	.
.	2A	.	.
=28	=28	=28	=28
2D	1B	0r	0r
1E	.	.	.
.	[1c	.	.
[2F	.	.	.
=29	=29	=29	=29
2F]	0c_	0r	0r
2E	.	.	.
2.C	.	.	.
4D	.	.	.
=30	=30	=30	=30
2E	0c_	0r	0r
1AA	.	.	.
[2A	.	.	.
=31	=31	=31	=31
2A]	0c_	0r	0r
4G	.	.	.
4F	.	.	.
4G	.	.	.
4F	.	.	.
4E	.	.	.
4D	.	.	.
=32	=32	=32	=32
2.C	1c]	0r	0r
4D	.	.	.
2E	[1c	.	.
2F	.	.	.
=33	=33	=33	=33
2E	1c]	0r	0r
2.A	.	.	.
.	[1c	.	.
4G	.	.	.
2E	.	.	.
=34	=34	=34	=34
1F	2c]	2r	0r
.	4B	1A	.
.	4A	.	.
1E	1B	.	.
.	.	2G#i	.
=35	=35	=35	=35
0AA	2A	1.A	0r
.	1c	.	.
.	4B	4G	.
.	4A	4A	.
=36	=36	=36	=36
1.E	2.G	1B	0r
.	4A	.	.
.	1B	2.G	.
2F	.	.	.
.	.	4A	.
=37	=37	=37	=37
1G	1E	1B	0r
1C	[1e	2B	.
.	.	[2c	.
=38	=38	=38	=38
0F	2e]	4c]	0r
.	.	4B	.
.	4d	4A	.
.	4c	4G	.
.	4d	1A	.
.	4c	.	.
.	4B	.	.
.	4A	.	.
=39	=39	=39	=39
0E	2.G	1B	1.g
.	4A	.	.
.	2B	1G	.
.	2c	.	4f
.	.	.	4e
=40	=40	=40	=40
0r	2B	0r	2d
.	2.e	.	2.g
.	4d	.	4f
.	2B	.	4e
.	.	.	4d
=41	=41	=41	=41
0r	1c	1r	2.e
.	.	.	4f
.	2B	2r	4g
.	.	.	4a
.	[2e	[2c	[2g
=42	=42	=42	=42
0r	4e]	2c]	2g]
.	4d	.	.
.	2f	2F	2a
.	2e	2G	2g
.	2c	2A	[2cc
=43	=43	=43	=43
0r	1d	2.G	2cc]
.	.	.	2b
.	.	4D	.
.	2r	2F	2a
.	[2c	4E	4g
.	.	4D	4f
=44	=44	=44	=44
0r	2c]	2C	2e
.	2B	2G	2d
.	2c	2C	2.g
.	[2A	[2D	.
.	.	.	4f
=45	=45	=45	=45
0r	2A]	2D]	4f
.	.	.	4e
.	2G	2E	2g
.	2A	2F	1c
.	2c	2A	.
=46	=46	=46	=46
1r	1B	1G	1d
[1FF	[1A	1r	[1c
=47	=47	=47	=47
2FF]	0A_	0r	1c]
2C	.	.	.
2D	.	.	1r
[2F	.	.	.
=48	=48	=48	=48
2F]	1A]	0r	0r
4E	.	.	.
4D	.	.	.
2C	1A	.	.
2D	.	.	.
=49	=49	=49	=49
2C	2.A	0r	0r
2D	.	.	.
.	4B	.	.
[1AA	2.c	.	.
.	4d	.	.
=50	=50	=50	=50
1AA]	[0e	1.C	0r
1r	.	.	.
.	.	2G	.
=51	=51	=51	=51
0r	0e]	2A	0r
.	.	1c	.
.	.	4B	.
.	.	4A	.
=52	=52	=52	=52
0r	[0e	2G	0r
.	.	2A	.
.	.	2G	.
.	.	2A	.
=53	=53	=53	=53
2r	0e]	2E	0r
2.c	.	2.A	.
4B	.	4G	.
4A	.	[2c	.
4G	.	.	.
=54	=54	=54	=54
2F	1d	2c]	0r
2G	.	2B	.
2E	[1c	2G	.
[2F	.	[2A	.
=55	=55	=55	=55
2F]	0c_	2A]	0r
4E	.	4G	.
4D	.	4F	.
[1C	.	[1E	.
=56	=56	=56	=56
1C]	1c]	1E]	1.c
1r	[1c	1r	.
.	.	.	2g
=57	=57	=57	=57
0r	0c_	0r	2a
.	.	.	1cc
.	.	.	4b
.	.	.	4a
=58	=58	=58	=58
0r	1c]	0r	2g
.	.	.	2a
.	2.c	.	2g
.	.	.	2a
.	4B	.	.
=59	=59	=59	=59
0r	4c	0r	1e
.	4d	.	.
.	1e	.	.
.	.	.	1f
.	2d	.	.
=60	=60	=60	=60
0C	0e	1.c	[0e
.	.	4B	.
.	.	4A	.
=61	=61	=61	=61
1.C	1.e	1G	0e]
.	.	2r	.
4BB	4d	[2G	.
4AA	4c	.	.
=62	=62	=62	=62
1GG	1B	4G]	1r
.	.	4F	.
.	.	4E	.
.	.	4D	.
1AA	1c	1C	1e
=63	=63	=63	=63
2.GG	1B	2r	1g
.	.	2.G	.
4AA	.	.	.
2BB	[1G	.	2.g
.	.	4F	.
[2C	.	4E	.
.	.	4D	4f
=64	=64	=64	=64
2C]	2G]	1C	2e
4BB	2A	.	4d
4AA	.	.	4c
1GG	1B	2r	1d
.	.	[2G	.
=65	=65	=65	=65
2.AA	[0E	4G]	1c
.	.	4F	.
.	.	4E	.
4BB	.	4D	.
2.C	.	2E	2.g
.	.	2C	.
8BBL	.	.	4a
8AAJ	.	.	.
=66	=66	=66	=66
2GG	0E]	2G	2b
1AA	.	2E	1cc
.	.	2A	.
2BB	.	4G	4b
.	.	4F	4a
=67	=67	=67	=67
0C	0e	2E	1.g
.	.	2C	.
.	.	[1G	.
.	.	.	2a
=68	=68	=68	=68
1GG	1d	1G]	1b
1AA	1c	1C	[1cc
=69	=69	=69	=69
0GG	0d	0G	2cc]
.	.	.	4b
.	.	.	4a
.	.	.	1b
=70	=70	=70	=70
0AA	1.c	1E	1cc
.	.	1A	4c
.	.	.	4d
.	4B	.	4e
.	4A	.	4f
=71	=71	=71	=71
0r	2B	2G	2g
.	2c	4F	2a
.	.	4E	.
.	2d	2D	2b
.	[2e	[2C	[2cc
=72	=72	=72	=72
1AA	2e]	4C]	2cc]
.	.	4D	.
.	4d	4E	4b
.	4c	4F	4a
1E	1B	2G	1g
.	.	2E	.
=73	=73	=73	=73
[0AA	0A	0E	1a
.	.	.	[1cc
=74	=74	=74	=74
1AA]	[0c	1e	2cc]
.	.	.	4b
.	.	.	4a
1E	.	2r	1g
.	.	[2e	.
=75	=75	=75	=75
0F	1c]	4e]	1.a
.	.	4d	.
.	.	4c	.
.	.	4B	.
.	1d	1A	.
.	.	.	4g
.	.	.	4f
=76	=76	=76	=76
[0E	[0el	0B	[0gl
=77	=77	=77	=77
1E]	0e_	1.B	0g_
1C	.	.	.
.	.	4A	.
.	.	4B	.
=78	=78	=78	=78
0Cl	0e]	0cl	0g]
!!LO:LB:i:g=z
=79||	=79||	=79||	=79||
*>C	*>C	*>C	*>C
*clefF4	*clefGv2	*clefGv2	*clefG2
*k[]	*k[]	*k[]	*k[]
*M3/1	*M3/1	*M3/1	*M3/1
*met(O)	*met(O)	*met(O)	*met(O)
!!section: Kyrie II
!!!OMD: Kyrie II
0.E	0.B	0e	[0.g
.	.	1e	.
=80	=80	=80	=80
[1C	0.c	1E	0g]
2.C]	.	2.E	.
4BB	.	4D	.
1AA	.	2E	1a
.	.	2F	.
=81	=81	=81	=81
1GG	1B	1G	1b
1FF	0A	2C	0cc
.	.	1F	.
1FF	.	.	.
.	.	4E	.
.	.	4D	.
=82	=82	=82	=82
1C	0.G	2E	2.cc
.	.	1e	.
.	.	.	4b
2.C	.	.	2g
.	.	2c	1cc
8BBL	.	.	.
8AAJ	.	.	.
1GG	.	1d	.
.	.	.	2b
=83	=83	=83	=83
1C	2.G	2.c	2cc
.	.	.	2.g
.	4A	8BL	.
.	.	8AJ	.
1r	2B	2G	.
.	.	.	4f
.	1c	2C	2e
1GG	.	1G	1d
.	2B	.	.
=84	=84	=84	=84
0AA	0c	2.E	1c
.	.	2F	.
.	.	.	1r
.	.	8EL	.
.	.	8DJ	.
.	.	2E	.
1BB	1d	2D	1r
.	.	[2G	.
=85	=85	=85	=85
1C	1e	4G]	1g
.	.	4C	.
.	.	1C	.
0FF	0f	.	2.a
.	.	2.A	.
.	.	.	4b
.	.	.	2.cc
.	.	4B	.
.	.	[2c	.
.	.	.	8bL
.	.	.	8aJ
=86	=86	=86	=86
1C	1e	4c]	2g
.	.	8BL	.
.	.	8AJ	.
.	.	4G	2cc
.	.	4E	.
1r	2d	2G	2b
.	2c	2A	2.a
1r	1B	1E	.
.	.	.	8g#iL
.	.	.	8f#iJ
.	.	.	2g#i
=87	=87	=87	=87
2.AA	0E	2A	1a
.	.	2.c	.
4BB	.	.	.
4C	.	.	1r
4D	.	8BL	.
.	.	8AJ	.
2E	.	2G	.
2E	1F	1A	1r
2D	.	.	.
=88	=88	=88	=88
4E	1E	0G	2.e
2C	.	.	.
8BBL	.	.	4f
8AAJ	.	.	.
2GG	1B	.	4g
.	.	.	4a
2.G	.	.	1b
.	1c	1A	.
4E	.	.	.
2F	.	.	2a
=89	=89	=89	=89
1.G	1B	1.G	1.b
.	1r	.	.
2E	.	2C	2g
1E	1r	1C	1g
=90	=90	=90	=90
0.r	4r	2F	2a
.	2c	.	.
.	.	2E	2g
.	4B	.	.
.	2A	4F	2cc
.	.	4C	.
.	4G	4E	4b
.	4F	4F	2a
.	2E	2G	.
.	.	.	4g
.	2D	2A	2f
=91	=91	=91	=91
2r	2C	4r	2e
.	.	2c	.
2G	1r	.	4d
.	.	4B	4e
2F	.	2A	4f
.	.	.	8eL
.	.	.	8fJ
2E	1r	2G	1g
1D	.	2.A	.
.	2r	.	2f
.	.	8GL	.
.	.	8FJ	.
=92	=92	=92	=92
2.C	1r	1E	1g
4BB	.	.	.
4AA	2r	1E	1c
4GG	.	.	.
2AA	2c	.	.
2GG	1d	2r	1r
2D	.	2F	.
=93	=93	=93	=93
2AA	1e	2E	2r
2C	.	2.A	2c
1BB-	2.f	.	1d
.	.	8GL	.
.	.	8FJ	.
.	.	2G	.
.	8eL	.	.
.	8dJ	.	.
1AA	1c	2C	1e
.	.	2c	.
=94	=94	=94	=94
2FF	2r	4A	2f
.	.	4.c	.
4.FF	1F	.	4e
.	.	8BL	.
.	.	8A	4d
8GG	.	8GJ	.
4AA	.	4F	[0c
4FF	.	4A	.
2C	2E	2G	.
1FF	2F	2A	.
.	2A	2F	.
=95	=95	=95	=95
0.r	4G	4E	1c]
.	2F	2A	.
.	8EL	8GL	.
.	8DJ	8FJ	.
.	1C	4E	2r
.	.	4C	.
.	.	2G	2.e
.	1G	4C	.
.	.	2BB	2d
.	.	4C	8cL
.	.	.	8BJ
=96	=96	=96	=96
1r	2F	2D	2A
.	2G	4E	1G
.	.	4C	.
1GG	1B	1G	.
.	.	.	2.g
2.D	1A	1r	.
.	.	.	2f
4C	.	.	8eL
.	.	.	8dJ
=97	=97	=97	=97
2AA	2A	0.r	2c
1GG	2.B	.	1d
.	4A	.	.
2C	2.c	.	2.e
2AA	.	.	.
.	4B	.	4d
4GG	[2B	.	2B
[4G	.	.	.
=98	=98	=98	=98
4G]	2B]	1r	1c
8F#iL	.	.	.
8EJ	.	.	.
2F#i	2A	.	.
1G	1B	2.d	1B
.	.	8cL	.
.	.	8BJ	.
1r	2A	2c	2r
.	[2G	2d	[2b
=99	=99	=99	=99
0.r	2G]	4r	2b]
.	.	2G	.
.	2c	.	2a
.	.	8FL	.
.	.	8EJ	.
.	2B	4G	2g
.	.	4E	.
.	2c	2A	1cc
.	1d	1G	.
.	.	.	2b
=100	=100	=100	=100
0.r	1c	2.C	2.cc
.	.	4D	4b
.	2B	2E	2g
.	2.A	2.F	2a
.	.	.	2f
.	8GL	8EL	.
.	8FJ	8DJ	.
.	4G	4C	[2e
.	[4A	[4c	.
=101	=101	=101	=101
1r	4A]	4c]	2e]
.	8GL	8BL	.
.	8FJ	8AJ	.
.	2E	2G	2c
2.BB-	1D	1F	2d
.	.	.	1f
8AAL	.	.	.
8GGJ	.	.	.
2FF	2A	2F	.
2C	2G	2G	[2e
=102	=102	=102	=102
2AA	1F	2A	2e]
2BB	.	2D	2d
2C	[0El	2G	[0el
1AA	.	4A	.
.	.	2c	.
.	.	4A	.
2GG	.	2B	.
=103	=103	=103	=103
1AA	0.E]	2.c	0.e]
.	.	4B	.
*^	*	*	*
0EEl	0El	.	0Bl	.
*v	*v	*	*	*
==	==	==	==
*-	*-	*-	*-
!!!RDF**kern: l=long note in original notation
!!!RDF**kern: i=editorial accidental
!!!RDF**kern: V=start of tuplet marker
!!!RDF**kern: Z=end of tuplet marker
!!!ENC:	Jesse Rodin; Megan K. Eagen 2013/04/23
!!!END:	2013/04/23/
!!!EED:	Jesse Rodin
!!!EEV:	2013/05/08/
!!!ONB:	Translated from MusicXML and edited on 2013/05/08/ by Craig Sapp
!!muse2ps: T^@{OPR}^u^@{ONM}{. }@{OTL}^C^@{COM}^i2I100v85,90,85,150c100Q16
